X:1
T:Christmas Carol
T:J. M. Chadwick
T:Christmas Carol
T:Public Domain
T:Public Domain
C:J. M. Chadwick
Z:Public Domain
%%score ( 1 2 ) ( 3 4 )
L:1/8
M:6/8
K:A
V:1 treble 
V:2 treble 
V:3 bass 
V:4 bass 
V:1
 [CE] | [Ec]>[DB][CA] [CE][^B,^D][=DF] | [CE]3- [CE]2 [CE] | [DF]>[EG][FA] [EA][EB][Ec] | %4
w: 1.~O,|sweet is the sto- ry of|old; * That|won- der- ful tale of the|
w: 2.~O,|tell the glad tid- ings to|all; * That|won- der- ful sto- ry of|
w: 3.~O,|pluck the fresh green of the|wood; * The|box and the myr- tle en-|
 [EB]3- [EB]2 E | [Ec]>[DB][CA] [CE][^B,^D][=DF] | [CE]3- [CE]2 [CE] | [DF]>[DB][DA] [DG][DF][DG] | %8
w: past; * Tho’|tu- ries on- ward have rolled,|That * tale|shall all ag- es out- last;|
w: old; * Re-|from the curse and the fall;|Re- * stored|to the shel- ter- ing fold;|
w: twine; * A-|the fair place of the Lord;|With * leaves|of the ev- er- green vine.|
 [CA]3- [CA]2 [EA] | [EB]>[EB][EB] [EB][EA][EB] | [Ec]3- [Ec]2 [CA] | [EB]>[EB][EB] [EB][^DA][EB] | %12
w: For * Christ|was the babe that was born;|The * Son|of the Lord came to earth;|
w: Our * Sav-|ior came down from a- bove;|He * bore|all our sor- row and sin,|
w: O, * loud|let the an- tehms a- rise,|To * greet|Him, our Sav- ior, our King;|
 [Ec]3- [Ec]2 [Ec] | [Ee]>[Ed][Ec] [Ec][EB][EA] | [DF]3- [DF]2 [DF] | [CE][CA][Ec] [DB][DF][DG] | %16
w: The * dawn|of the first Christ- mas morn,|Be- * held|our Im- man- u- el’s birth.|
w: That * we|by His in- fin- ite love|A * rest|and a ref- uge might win.|
w: While * Heav-|en’s great chor- us re- pplies;|Let * joy-|ful ho- san- nas now ring.|
 [CA]3- [CA]2 ||"^Refrain" [CA] | [EB]>[EB][EB] [EB]2 [EA] | [Ec]>[Ec][Ec] [Ec]2 [EB] | %20
w: ||||
w: Me- *|si-|ah is king, With rap-|ture we sing, All glo-|
w: ||||
 [Ec][Ee][FA] [FB][Fd](E/D/) | [CA]3- [CA]2 |] %22
w: ||
w: ry, all glo- ry to Thee! *||
w: ||
V:2
 x | x6 | x6 | x6 | x5 E | x6 | x6 | x6 | x6 | x6 | x6 | x6 | x6 | x6 | x6 | x6 | x5 || x | x6 | %19
w: ||||cen-|||||||||||||||
w: ||||deemed|||||||||||||||
w: ||||dorn|||||||||||||||
 x6 | x5 G | x5 |] %22
w: |||
w: |||
w: |||
V:3
 [A,,A,] | [A,,A,]>[A,,A,][A,,A,] [A,,A,][A,,A,][A,,A,] | [A,,A,]3- [A,,A,]2 [A,,A,] | %3
 [D,A,]>[D,A,][D,A,] [C,A,][B,,G,][A,,A,] | [E,G,]3- [E,G,]2 [E,G,] | %5
 [A,,A,]>[A,,A,][A,,A,] [A,,A,][A,,A,][A,,A,] | [A,,A,]3- [A,,A,]2 [A,,A,] | %7
 [D,A,]>[D,F,][D,F,] [E,B,][E,B,][E,B,] | A,3- A,2 [A,C] | %9
 [E,G,]>[E,G,][E,G,] [D,G,][C,A,][B,,G,] | [A,,A,]3- [A,,A,]2 [A,,A,] | %11
 [E,G,]>[E,G,][E,G,] [E,G,][F,B,][G,B,] | A,3- A,2 [A,,A,] | %13
 [C,A,]>[B,,G,][A,,A,] [A,,A,][B,,G,][C,A,] | [D,A,]3- [D,A,]2 [D,A,] | %15
 [E,A,][E,A,][E,A,] [E,G,][E,B,][E,B,] | [A,,A,]3- [A,,A,]2 || [F,A,] | %18
 [E,G,]>[E,G,][E,G,] [E,G,]2 [E,G,] | A,>A,A, A,2 [E,G,] | A,[A,C][F,C] [D,D][B,,D][E,B,] | %21
 [A,,A,]3- [A,,A,]2 |] %22
V:4
 x | x6 | x6 | x6 | x6 | x6 | x6 | x6 | A,3- A,2 x | x6 | x6 | x6 | A,3- A,2 x | x6 | x6 | x6 | %16
 x5 || x | x6 | A,>A,A, A,2 x | A, x5 | x5 |] %22

